X:1
T:Pas de Trois, V. Allgero
T:Pas de Trois, V. Allgero
T:Swan Lake, Piano Arrangement for 3 hands
T:Hinci
C:Hinci
%%score { 1 | ( 2 4 ) | ( 3 5 ) }
L:1/8
Q:1/4=126
M:2/4
K:F
V:1 treble nm="Piano" snm="Pno."
V:2 treble 
V:4 treble 
V:3 treble 
V:5 treble 
V:1
"^Allgero."!mp! .[cfc'].[cc'] .[c^fc'].[cc'] | .[cgc'].[cc']7/8(e'/8 ([d^gd'])[cc']) | %2
 .[ac']/.d'/.e'/.f'/ .[bd']/.e'/.f'/.g'/ | .[c'e']/.f'/.g'/.a'/ f'2 | %4
 .[cfc'].[cc'] .[c^fc'].[cc'] | .[cgc'].[cc']7/8(e'/8 ([d^gd'])[cc']) | %6
 .[ac']/.b/.a/.c'/ .[gb]/.a/.g/.b/ | .[fa]/.g/.f/.a/ g2 | .[cfc'].[cc'] .[c^fc'].[cc'] | %9
 .[cgc'].[cc']7/8(e'/8 ([d^gd'])[cc']) | .[ac']/.d'/.e'/.f'/ .[bd']/.e'/.f'/.g'/ | %11
 .[c'e']/.f'/.g'/.a'/ f'2 | .[cfc'].[cc'] .[c^fc'].[cc'] | .[cgc'].[cc']7/8(e'/8 ([d^gd'])[cc']) | %14
 .[ac']/.b/.a/.c'/ .b/.a/.g/.b/ | .a/.f/.g/.e/ .f z |:!p! .f.f .f.f | .f.f7/8(f/8 (e)d) | %18
!>(! (A,/=B,/^C/E/) (A,/B,/C/E/) | (A,/=B,/^C/E/) (A,/B,/C/!>)!!pp!E/) |!p! .f.f .f.f | %21
 .f.f7/8(f/8 (e)d) | (A,/=B,/^C/E/) (A,/B,/C/E/) | (A,/=B,/^C/G/) (F/E/D/A,/) :| %24
!mf! [gg'][gg']{/=b'} ([aa'][gg']) | cc{/c} (AG) | (g/=b/^c'/d'/) (g/b/c'/d'/) | %27
 (c'/e'/^f'/g'/) (c'/e'/f'/g'/) | [gg'][gg']{/=b'} ([aa'][gg']) | cc{/c} (AG) | %30
 (g/=b/^c'/d'/) (g/b/c'/d'/) | (c'/e'/^f'/g'/) (c'/e'/f'/g'/) | (b/c'/^d'/e'/) (b/c'/d'/e'/) | %33
 (e/g/=b/c'/) (e/g/b/c'/) |"^rit."[Q:1/4=122]!>(! (B/e/^f/g/)[Q:1/4=118] (B/e/f/g/) | %35
[Q:1/4=114] (G/B/^d/e/)[Q:1/4=110] (G/B/d/e/)!>)! |!mp![Q:1/4=126] .[cfc'].[cc'] .[c^fc'].[cc'] | %37
 .[cgc'].[cc']7/8(e'/8 ([d^gd'])[cc']) | .[ac']/.d'/.e'/.f'/ .[bd']/.e'/.f'/.g'/ | %39
 .[c'e']/.f'/.g'/.a'/ f'2 | .[cfc'].[cc'] .[c^fc'].[cc'] | .[cgc'].[cc']7/8(e'/8 ([d^gd'])[cc']) | %42
 .[ac']/.b/.a/.c'/ .[gb]/.a/.g/.b/ | .[fa]/.g/.f/.a/ g2 | .[cfc'].[cc'] .[c^fc'].[cc'] | %45
 .[cgc'].[cc']7/8(e'/8 ([d^gd'])[cc']) | .[ac']/.d'/.e'/.f'/ .[bd']/.e'/.f'/.g'/ | %47
 .[c'e']/.f'/.g'/.a'/ f'2 | .[cfc'].[cc'] .[c^fc'].[cc'] | .[cgc'].[cc']7/8(e'/8 ([d^gd'])[cc']) | %50
 .[ac']/.b/.a/.c'/ .b/.a/.g/.b/ | .a/.f/.g/.e/!<(! [Ff]/([Gg]/[Aa]/[Bb]/)!<)! | %52
!f! ([cc']/[^c^c']/[dd']/[ee']/) ([ff']/[gg']/[aa']/[bb']/) | %53
 ([c'c'']/[bb']/[aa']/[gg']/) ([ff']/A/B/=B/) |"_cresc." (c/^c/d/e/) (f/g/a/b/) | %55
 (c'/b/a/g/) (f/g/a/b/) | ([ebc']/b/a/g/) ([fa]/g/a/b/) | ([ebc']/b/a/g/) ([fa]/g/a/b/) | %58
 ([ebc']/^c'/d'/e'/!ff! [fa=c'f']) z |] %59
V:2
!p! [F,,F,][FA] [^F,,^F,][CEB] | [G,,G,][CEB] [^G,,^G,][CEB] | [A,,A,][CFA] [B,,B,][DFG] | %3
 [C,C][CEG] [A,,A,][CFA] | [F,,F,][FA] [^F,,^F,][CEB] | [G,,G,][CEB] [^G,,^G,][CEB] | %6
 [A,,A,][CFA] [B,,B,][DFG] | [=B,,=B,][DFG] [C,C][CEG] | [F,,F,][FA] [^F,,^F,][CEB] | %9
 [G,,G,][CEB] [^G,,^G,][CEB] | [A,,A,][CFA] [B,,B,][DFG] | [C,C][CEG] [A,,A,][CFA] | %12
 [F,,F,][FA] [^F,,^F,][CEB] | [G,,G,][CEB] [^G,,^G,][CEB] | [A,,A,][FA] [B,,B,][DG] | %15
 [CFA][B,CEG] [F,A,CF] z |:[K:bass]!pp! [D,,D,][A,DF] [A,,A,][A,DF] | [D,,D,][A,DF] [A,,A,][A,DF] | %18
 [D,,D,][A,EG] [A,,A,][A,EG] | [D,,D,][A,EG] [A,,A,][A,EG] | [D,,D,][A,DF] [A,,A,][A,DF] | %21
 [D,,D,][A,DF] [A,,A,][A,DF] | [D,,D,][A,EG] [A,,A,][A,EG] | [D,,D,][A,,^C,G,A,] [D,,A,,D,F,] z :| %24
 [C,,G,,C,]4 | [C,,G,,C,]4 | [G,,C,]4 | [C,,G,,C,]4 | [C,,G,,C,]4 | [C,,G,,C,]4 | [G,,C,]4 | %31
 [C,,G,,C,]4 |[K:treble] [Gg][Gg] [Ee][Cc] | [B,B][B,B] [G,G][E,E] | [E,E][E,E] [B,,B,][G,,G,] | %35
 !>![G,G]!>![G,G] !>![E,E]!>![C,C] |!p! [F,,F,][FA] [^F,,^F,][CEB] | [G,,G,][CEB] [^G,,^G,][CEB] | %38
 [A,,A,][CFA] [B,,B,][DFG] | [C,C][CEG] [A,,A,][CFA] | [F,,F,][FA] [^F,,^F,][CEB] | %41
 [G,,G,][CEB] [^G,,^G,][CEB] | [A,,A,][CFA] [B,,B,][DFG] | [=B,,=B,][DFG] [C,C][CEG] | %44
 [F,,F,][FA] [^F,,^F,][CEB] | [G,,G,][CEB] [^G,,^G,][CEB] | [A,,A,][CFA] [B,,B,][DFG] | %47
 [C,C][CEG] [A,,A,][CFA] | [F,,F,][FA] [^F,,^F,][CEB] | [G,,G,][CEB] [^G,,^G,][CEB] | %50
 [A,,A,][FA] [B,,B,][DG] | [CFA][B,CEG] [F,CF] z | ([C,G,B,C]2 [C,F,A,C]) z | %53
 ([C,E,B,C]2 [C,F,A,C]) z | ([C,G,B,C]2 [C,F,A,C]) z | ([C,E,B,C]2 [C,F,A,C]) z | %56
 [B,,E,B,C]2 [A,,F,A,C]2 | [B,,E,B,C]2 [A,,F,A,C]2 | [B,,E,B,C][B,,E,B,C] [F,A,CF] z |] %59
V:3
 z4 | z4 | z4 | z4 | z4 | z4 | z4 | z4 | z4 | z4 | z4 | z4 | z4 | z4 | z4 | z4 |:!p! z4 | z4 | %18
 .a.a .a.a | .a.a7/8(c'/8 (b)a) | z4 | z4 |!<(! .a.a .a.a | (a/g/f/e/!<)!!mp! d) z :| [=B,F]4 | %25
 [CE]4 | [DF]4 | E4 | [=B,F]4 | [CE]4 | [DF]4 | E4 | z4 | z4 | z4 | z4 | z4 | z4 | z4 | z4 | z4 | %41
 z4 | z4 | z4 | z4 | z4 | z4 | z4 | z4 | z4 | z4 | z4 | z4 | z4 | %54
!p!"_cresc." (C/^C/D/E/) (F/G/A/B/) | (c/B/A/G/) (F/G/A/B/) | (c/B/A/G/) (F/G/A/B/) | %57
 (c/B/A/G/) (F/G/A/B/) | (c/^c/d/e/!ff! f) z |] %59
V:4
 x4 | x4 | x4 | x4 | x4 | x4 | x4 | x4 | x4 | x4 | x4 | x4 | x4 | x4 | x4 | x4 |:[K:bass] x4 | x4 | %18
 x4 | x4 | x4 | x4 | x4 | x4 :| x4 | x4 | =B,B, (A,G,) | x4 | x4 | x4 | =B,B, (A,G,) | x4 | %32
[K:treble] x4 | x4 | x4 | x4 | x4 | x4 | x4 | x4 | x4 | x4 | x4 | x4 | x4 | x4 | x4 | x4 | x4 | %49
 x4 | x4 | x4 | x4 | x4 | x4 | x4 | x4 | x4 | x4 |] %59
V:5
 x4 | x4 | x4 | x4 | x4 | x4 | x4 | x4 | x4 | x4 | x4 | x4 | x4 | x4 | x4 | x4 |: x4 | x4 | x4 | %19
 x4 | x4 | x4 | x4 | x4 :| x4 | x4 | x4 | EE (DC) | x4 | x4 | x4 | EE (DC) | x4 | x4 | x4 | x4 | %36
 x4 | x4 | x4 | x4 | x4 | x4 | x4 | x4 | x4 | x4 | x4 | x4 | x4 | x4 | x4 | x4 | x4 | x4 | x4 | %55
 x4 | x4 | x4 | x4 |] %59

